X:1
T:Title
%%score 1 ( 2 3 )
L:1/8
Q:1/4=140
M:3/2
K:G
V:1 treble nm="Strings 1, Treble"
V:2 bass nm="Strings 1, Bass"
V:3 bass 
V:1
 z4 z4 z2 [B,D]2 | [B,D]6 [B,E]2 [B,F]2 [B,G]2 | [CA]2 [B,G]2 [DB]6 [Ec]2 | %3
 [DB]6 [CA]2 [CD]2 [CA]2 | [CA]2 [B,G]2 [B,G]6 [DG]2 | [EG]6 [CE]2 [EG]2 [CE]2 | %6
 [DG]2 [DG]2 [DA]4 [DB]4 | [DA]6 [DF]2 [^CG]2 [CG]2 | %8
 [^CF]2 [CE]2 D2 B,2 =C2[Q:1/4=140] [DB]2[Q:1/4=12] | [B,D]6 [DG]2 [Ge]2 [Gd]2 | %10
 [Fc]3 [=FB] [^Fc]6 [Fc]2 | [FA]6 [CF]2 [CE]2 [CD]2 | [DB]3 [^C_B] [D=B]6 [B,D]2 | %13
 [DB]6 [Dc]2 [Gd]2 [Gd]2 | [^Ge]3 [Ed] [Ec]2 E2 F2 [E=G]2 | [DB]2 [Dc]2 [DB]6 [DA]2 | [DG]8 z4 |] %17
V:2
 z4 z4 z2 [G,,G,]2 | [G,,G,]6 [G,,G,]2 [G,,G,]2 [G,,G,]2 | [G,,D,]2 [G,,D,]2 G,6 G,2 | %3
w: 1.~In~|hum ble~ faith~ at~|Je sus'~ feet,~ Oh,~|
 [D,G,]6 [D,F,]2 [D,F,]2 D,2 | [G,,D,]2 [G,,D,]2 [G,,D,]6 [B,,G,]2 | %5
w: may~ I~ learn~ a~|les son~ sweet,~ That~|
 [C,C]6 [C,G,]2 [C,C]2 [C,G,]2 | [B,,G,]2 [B,,G,]2 [A,,F,]4 [G,,G,]4 | %7
w: wheth er~ sun~ or~|rain~ I~ see,~ God's~|
 [A,,F,]6 [A,,A,]2 [A,,A,]2 [A,,B,]2 | z4 .F,4 z4 | [G,,G,]6 [G,,B,]2 [G,,C]2 [G,,B,]2 | %10
w: way~ is~ al ways~|me.~||
 [D,A,]3 [D,^G,] [D,A,]6 [D,A,]2 | [D,C]6 [D,A,]2 [E,G,]2 [F,A,]2 | G,3 G, G,6 [G,,G,]2 | %13
w: |||
 G,6 [G,A,]2 [G,B,]2 [G,B,]2 | [E,B,]3 [E,^G,] .[A,,A,]4 z2 [C,=G,]2 | %15
w: ||
 [D,G,]2 [D,A,]2 [D,G,]6 [D,C]2 | [G,,B,]8 z4 |] %17
w: ||
V:3
 x12 | x12 | x12 | x12 | x12 | x12 | x12 | x12 | [A,,A,]2 [A,,G,]2 D,2- [D,-G,]2 [D,A,]2 [G,,G,]2 | %9
w: ||||||||* for~ * * * *|
 x12 | x12 | x12 | x12 | x12 | x12 | x12 | x12 |] %17
w: ||||||||

